src/renderer/assets/svgs/phone.svg

﻿<?xml version="1.0" encoding="utf-8"?>
<svg xmlns="http://www.w3.org/2000/svg" viewBox="0 0 26 26" width="208" height="208">
  <path d="M8 0C6.34375 0 5 1.34375 5 3L5 23C5 24.65625 6.34375 26 8 26L19 26C20.65625 26 22 24.65625 22 23L22 3C22 1.34375 20.65625 0 19 0 Z M 11.5 1L15.5 1C15.777344 1 16 1.222656 16 1.5C16 1.777344 15.777344 2 15.5 2L11.5 2C11.222656 2 11 1.777344 11 1.5C11 1.222656 11.222656 1 11.5 1 Z M 7.5 3L19.5 3C19.777344 3 20 3.222656 20 3.5L20 20.5C20 20.777344 19.777344 21 19.5 21L7.5 21C7.222656 21 7 20.777344 7 20.5L7 3.5C7 3.222656 7.222656 3 7.5 3 Z M 11.65625 6.71875C11.617188 6.746094 11.59375 6.828125 11.625 6.875L12.15625 7.625C11.320313 8.011719 10.730469 8.761719 10.65625 9.625L16.34375 9.625C16.269531 8.761719 15.679688 8.015625 14.84375 7.625L15.375 6.875C15.40625 6.828125 15.414063 6.746094 15.375 6.71875C15.335938 6.691406 15.25 6.703125 15.21875 6.75L14.6875 7.5625C14.324219 7.421875 13.921875 7.34375 13.5 7.34375C13.078125 7.34375 12.671875 7.421875 12.3125 7.5625L11.78125 6.75C11.75 6.703125 11.695313 6.691406 11.65625 6.71875 Z M 12.3125 8.1875C12.484375 8.1875 12.625 8.324219 12.625 8.5C12.625 8.675781 12.484375 8.84375 12.3125 8.84375C12.140625 8.84375 11.96875 8.675781 11.96875 8.5C11.96875 8.328125 12.140625 8.1875 12.3125 8.1875 Z M 14.75 8.1875C14.925781 8.1875 15.0625 8.324219 15.0625 8.5C15.0625 8.675781 14.925781 8.84375 14.75 8.84375C14.578125 8.84375 14.4375 8.675781 14.4375 8.5C14.4375 8.328125 14.574219 8.1875 14.75 8.1875 Z M 9.625 10C9.273438 10 9 10.296875 9 10.65625L9 13.1875C9 13.546875 9.273438 13.84375 9.625 13.84375C9.980469 13.84375 10.28125 13.546875 10.28125 13.1875L10.28125 10.65625C10.28125 10.296875 9.980469 10 9.625 10 Z M 17.34375 10C16.988281 10 16.71875 10.296875 16.71875 10.65625L16.71875 13.1875C16.71875 13.546875 16.988281 13.84375 17.34375 13.84375C17.699219 13.84375 18 13.546875 18 13.1875L18 10.65625C18 10.296875 17.699219 10 17.34375 10 Z M 10.65625 10.03125L10.65625 14.65625C10.65625 14.933594 10.882813 15.15625 11.15625 15.15625L11.71875 15.15625L11.71875 16.59375C11.71875 16.953125 12.019531 17.21875 12.375 17.21875C12.730469 17.21875 13 16.953125 13 16.59375L13 15.15625L14 15.15625L14 16.59375C14 16.953125 14.304688 17.21875 14.65625 17.21875C15.011719 17.21875 15.28125 16.953125 15.28125 16.59375L15.28125 15.15625L15.875 15.15625C16.152344 15.15625 16.375 14.933594 16.375 14.65625L16.375 10.03125 Z M 8.5 23L10.5 23C10.777344 23 11 23.222656 11 23.5C11 23.777344 10.777344 24 10.5 24L8.5 24C8.222656 24 8 23.777344 8 23.5C8 23.222656 8.222656 23 8.5 23 Z M 12.5 23L14.5 23C14.777344 23 15 23.222656 15 23.5L15 24.5C15 24.777344 14.777344 25 14.5 25L12.5 25C12.222656 25 12 24.777344 12 24.5L12 23.5C12 23.222656 12.222656 23 12.5 23 Z M 16.5 23L18.5 23C18.777344 23 19 23.222656 19 23.5C19 23.777344 18.777344 24 18.5 24L16.5 24C16.222656 24 16 23.777344 16 23.5C16 23.222656 16.222656 23 16.5 23Z" fill="#5B5B5B" />
</svg>

﻿<svg xmlns="http://www.w3.org/2000/svg" viewBox="0 0 26 26" width="208" height="208"><path d="M8 0a3 3 0 00-3 3v20a3 3 0 003 3h11a3 3 0 003-3V3a3 3 0 00-3-3zm3.5 1h4c.277 0 .5.223.5.5s-.223.5-.5.5h-4a.498.498 0 01-.5-.5c0-.277.223-.5.5-.5zm-4 2h12c.277 0 .5.223.5.5v17c0 .277-.223.5-.5.5h-12a.498.498 0 01-.5-.5v-17c0-.277.223-.5.5-.5zm4.156 3.719c-.039.027-.062.11-.031.156l.531.75c-.836.387-1.426 1.137-1.5 2h5.688c-.074-.863-.664-1.61-1.5-2l.531-.75c.031-.047.04-.129 0-.156-.04-.028-.125-.016-.156.031l-.531.813a3.29 3.29 0 00-1.188-.22c-.422 0-.828.079-1.188.22l-.53-.813c-.032-.047-.087-.059-.126-.031zm.656 1.468a.31.31 0 01.313.313c0 .176-.14.344-.313.344a.367.367 0 01-.343-.344c0-.172.172-.313.344-.313zm2.438 0c.176 0 .313.137.313.313s-.137.344-.313.344c-.172 0-.313-.168-.313-.344a.31.31 0 01.313-.313zM9.625 10c-.352 0-.625.297-.625.656v2.531c0 .36.273.657.625.657a.663.663 0 00.656-.656v-2.532c0-.36-.3-.656-.656-.656zm7.719 0c-.356 0-.625.297-.625.656v2.531c0 .36.27.657.625.657a.663.663 0 00.656-.656v-2.532c0-.36-.3-.656-.656-.656zm-6.688.031v4.625c0 .278.227.5.5.5h.563v1.438c0 .36.3.625.656.625a.61.61 0 00.625-.625v-1.438h1v1.438c0 .36.305.625.656.625a.61.61 0 00.625-.625v-1.438h.594c.277 0 .5-.222.5-.5v-4.625zM8.5 23h2c.277 0 .5.223.5.5s-.223.5-.5.5h-2a.498.498 0 01-.5-.5c0-.277.223-.5.5-.5zm4 0h2c.277 0 .5.223.5.5v1c0 .277-.223.5-.5.5h-2a.498.498 0 01-.5-.5v-1c0-.277.223-.5.5-.5zm4 0h2c.277 0 .5.223.5.5s-.223.5-.5.5h-2a.498.498 0 01-.5-.5c0-.277.223-.5.5-.5z" fill="#5B5B5B"/></svg>
